X: 3122
Q:"Reel."
M: C
L: 1/8
K: C
ua |\
g2ec d2BG | c2GE (FD)Da |\
g2ec d2BG | cGAF ECC ::\
(E/F/G) (Gc) AcGc |
[2 (E/F/G) (Gc) AcGc | EGcG ECC :|\
[2 EGce FAdf | gedf ecc |]


